!!!!SEGMENT: pl-wtm--r-1440_stefani-jozef--aria-buffa-z-operetki-piorun.krn
!!!cenid: 18xx:2457
!!!COM: Stefani, Józef
!!!COM-rismID: pe30024097
!!!CDT: 1800/04/16-1876/03/19
!!!CNT: Polish
!!!OTL: Aria buffa z operetki Piorun
!!!PDT:
!!!AGN: Secular
!!!SMS-siglum: PL-Wtm
!!!SMS-shelfmark: R 1440
!!!SMS-shelfwork: W
!!!SMS-variant: Partytura: PL-WTM R 1440:0002-0007
!!!SMS-altvar: [Tenore]: PL-WTM R 1440:0008-0010
!!!NIFC-rismSourceID: 1001116440
!!!NIFC-islandoraID: pl-wtm:25695
!!!URL-pdf-islandora: https://repozytorium.nifc.pl/islandora/object/pl-wtm%3A25695/datastream/PDF/view
!!!URL-scan: https://polish.musicsources.pl/pl/lokalizacje/galeria/rekopisy/6256 @EN{Scan on Polish Music Herritage in Open Access Website} @PL{Skany w portalu Dziedzictwo Muzyki Polskiej w otwartym dostępie}
!!!ONB-nifc: UWAGA: na podstawie partytury (dodatkowo partia wokalna). Proszę wypełnić pola SMS
!!!AIN: 1 empty 2 piano
!!!key:
**kern	**kern	**dynam	**kern	**text	**dynam
*part3	*part2	*part2	*part1	*part1	*part1
*staff3	*staff2	*	*staff1	*staff1	*
*Ipiano	*Ipiano	*	*Iempty	*	*
*I"Piano	*I"Piano	*	*I"Placyd	*	*
*clefF4	*clefG2	*	*clefG2	*	*
*	*	*	*Trd0c0	*	*
*k[b-]	*k[b-]	*	*k[b-]	*	*
*F:	*F:	*	*F:	*	*
*M6/8	*M6/8	*	*M6/8	*	*
!	!	!	!LO:TX:a:rj:t=Allegretto.	!	!
8r	8cc\	.	8r	.	.
=1	=1	=1	=1	=1	=1
8c\L 8A\ 8F\	8ff\L	.	2.r	.	.
8r	8r	.	.	.	.
8c\J 8A\ 8F\	8ff\J	.	.	.	.
.	(8qaa/	.	.	.	.
8c\L 8G\ 8E\ 8C\	8.gg\L)	.	.	.	.
8r	.	.	.	.	.
.	16ff\K	.	.	.	.
8c\J 8G\ 8E\ 8C\	8gg\J	.	.	.	.
=2	=2	=2	=2	=2	=2
8c\ 8A\ 8F\	8aa\	.	2.r	.	.
8r	8r	.	.	.	.
8r	8r	.	.	.	.
!	!	!LO:DY:rj	!	!	!
.	(32qqddd/LLL	f	.	.	.
.	32qqeee/JJJ	.	.	.	.
8A-X\ 8F\ 8BBn\	8fff\)	.	.	.	.
8r	8r	.	.	.	.
8r	8r	.	.	.	.
!!LO:LB:g=original
=3	=3	=3	=3	=3	=3
8An\ 8F\ 8C\	(16ccc\LL	.	2.r	.	.
.	16bbn\	.	.	.	.
8r	16ddd\	.	.	.	.
.	16ccc\	.	.	.	.
8r	16aa\	.	.	.	.
.	16ff\JJ	.	.	.	.
8B-\ 8G\ 8C\	16ee\LL	.	.	.	.
.	16cc\	.	.	.	.
8r	16bn\	.	.	.	.
.	16cc\	.	.	.	.
8r	16b-X\	.	.	.	.
.	16g\JJ)	.	.	.	.
=4	=4	=4	=4	=4	=4
8A\ 8F\	8f/	.	4r	.	.
8r	8r	.	.	.	.
8r	8r	.	8r	.	.
8c\ 8G\ 8E\ 8C\	8ccc\ 8gg\ 8ee\ 8cc\	f	8r	.	.
!	!LO:TX:b:t=V&colon; S&colon;	!	!	!	!
8r;	8r;	.	8r;	.	.
!!LO:PB:g=original
=||	=||	=||	=||	=||	=||
8r	8c/	p	8c/	Pie-	.
=5	=5	=5	=5	=5	=5
8c\L 8A\ 8F\	8f/L	.	4f/	-tna-	.
8r	8r	.	.	.	.
8c\J 8A\ 8F\	8f/J	.	8f/	-sto	.
.	(8qa/	.	(8qa/	.	.
8c\L 8G\ 8E\ 8C\	8.g/L	.	8.g/)	le-	.
8r	.	.	.	.	.
.	16f/K)	.	16f/	-tnie	.
8c\J 8G\ 8E\ 8C\	8g/J	.	8g/	dziew-	.
=6	=6	=6	=6	=6	=6
8c\L 8A\ 8F\	4a/	.	4.a/	-czy-	.
8r	.	.	.	.	.
8c\J 8A\ 8F\	32r	.	.	.	.
.	(32cc\LLL	.	.	.	.
.	32dd\	.	.	.	.
.	32ee\JJJ)	.	.	.	.
8c\ 8A\ 8F\	8ff\	.	8f/	-ny,	.
8r	8a'/L	.	8a/	Co	.
8r	8dd'/J	.	8cc\	tu	.
=7	=7	=7	=7	=7	=7
8c\L 8A\ 8F\	4cc\	.	4cc\	zo-	.
8r	.	.	.	.	.
8c\J 8A\ 8F\	8f/	.	8f/	-wią	.
.	8qg/	.	(8qg/	.	.
8c\L 8A\ 8F\	8.f/L	.	8.f/L)	je	.
8r	.	.	.	.	.
.	16e/K	.	16e/Jk	.	.
8c\J 8A\ 8F\	8f/J	.	8f/	pod-	.
!!LO:LB:g=original
=8	=8	=8	=8	=8	=8
8c\L 8G\ 8E\ 8C\	4g/	.	4.g/	-lo-	.
8r	.	.	.	.	.
8c\J 8G\ 8E\ 8C\	(32gg\LLL	.	.	.	.
.	32ff\	.	.	.	.
.	32ee\	.	.	.	.
.	32dd\JJJ	.	.	.	.
8c\ 8G\ 8E\ 8C\	8cc\)	.	8cc\	-tki	.
8r	8r	.	8r	.	.
8r	8c/	.	8c/	Te	.
=9	=9	=9	=9	=9	=9
8c\L 8A\ 8F\	8f/L	.	4f/	mi-	.
8r	8r	.	.	.	.
8c\J 8A\ 8F\	8f/J	.	8f/	-łe	.
.	(8qa/	.	(8qa/	.	.
8c\L 8G\ 8E\ 8C\	8.g/L)	.	8.g/)	drob-	.
8r	.	.	.	.	.
.	16f/K|	.	16f/	-ne	.
8c\J 8G\ 8E\ 8C\	8g/J|	.	8g/	szcze-	.
=10	=10	=10	=10	=10	=10
8c\L 8A\ 8F\	4a/	.	4.a/	-bio-	.
8r	.	.	.	.	.
8c\J 8A\ 8F\	32r	.	.	.	.
.	(32cc\LLL	.	.	.	.
.	32dd\	.	.	.	.
!	!LO:TX:t=P:problem= łua na dole i na górze	!	!	!	!
.	32ee\JJJ	.	.	.	.
8c\ 8A\ 8F\	8ff\)	.	8f/	-tki	.
8r	8r	.	8r	.	.
8r	8r	.	8a/	Po-	.
!!LO:LB:g=original
=11	=11	=11	=11	=11	=11
8GG/	(16f#X/LL	.	8g/	-dob-	.
.	16g/	.	.	.	.
8e\L 8c\ 8G\	16a/	.	8e/	-ne	.
.	16bn/	.	.	.	.
8e\J 8c\ 8G\	16cc/	.	8c/	do	.
.	16dd/JJ	.	.	.	.
8GG/	16ee\LL	.	4g/	pi-	.
.	16ff\	.	.	.	.
8f\L 8d\ 8G\	16ff#X\	.	.	.	.
.	16gg\	.	.	.	.
8f\J 8d\ 8G\	16aa\	.	8g/	-ko-	.
.	16bbn\JJ	.	.	.	.
=12	=12	=12	=12	=12	=12
8e\ 8c\	8ccc\)	.	8g/	-li-	.
8r	8r	.	8c/	-ny	.
8c\L 8G\ 8E\ 8C\	(32gg\LLL	.	8r	.	.
.	32ff\	.	.	.	.
.	32ee\	.	.	.	.
.	32dd\JJJ)	.	.	.	.
8c\J 8G\ 8E\ 8C\	8cc\	.	8r	.	.
8r	8r	.	8cc\	A	.
8r	8r	.	8cc\	gdy	.
=13	=13	=13	=13	=13	=13
*	*^	*	*	*	*
*2\right	*	*	*	*	*	*
2.B-\ 2.BB-\	4.dd/ 4.f/ 4.d/	4.ryy	.	4dd\	wie-	.
.	.	.	.	8dd\	-ku	.
.	8.g/L	4.e\ 4.c\	.	8.g/L	swe-	.
.	16a/K	.	.	16a/Jk	.	.
.	8b-/J	.	.	8b-/	-go	.
*	*v	*v	*	*	*	*
!!LO:LB:g=original
=14	=14	=14	=14	=14	=14
4.A\ 4.AA\	4.cc/ 4.f/ 4.c/	.	4.cc\	wios-	.
8A\ 8AA\	8f/ 8c/	.	8f/	-nie	.
8r	8r	.	8f/	na	.
8r	8r	.	8f/	pa-	.
=15	=15	=15	=15	=15	=15
8G/L 8GG/	8b-/L 8g/ 8d/	.	4b-/	-nien-	.
8r	8r	.	.	.	.
8E/J 8EE/	8g/J 8c/	.	8g/	-kę	.
8F/L 8FF/	8a/L 8f/ 8c/	.	4a/	już	.
8r	8r	.	.	.	.
8A/J 8AA/	8f/J 8c/	.	8f/	do-	.
=16	=16	=16	=16	=16	=16
8C/ 8CC/	8g/ 8e/ 8c/	.	8cc\	-ros-	.
8r	8r	.	8c/	-nie	.
*clefG2	*	*	*	*	*
(32g/LLL	(32gg\LLL	.	8r	.	.
32f/	32ff\	.	.	.	.
32e/	32ee\	.	.	.	.
32d/JJJ	32dd\JJJ	.	.	.	.
8c/)	8cc\)	.	8r	.	.
8r	8r	.	8g/	Ser-	.
8r	8r	.	8cc\	-ce	.
!!LO:PB:g=original
=17	=17	=17	=17	=17	=17
*clefF4	*	*	*	*	*
2.C\ 2.CC\	2.f/ 2.Bn/ 2.G^</	.	4bn/	A-	.
.	.	.	8g/	-mor	.
.	.	.	4f/	iej	.
.	.	.	8d/	nie-	.
=18	=18	=18	=18	=18	=18
!	!LO:TX:t=P:problem=mixed beam	!	!	!	!
8C\ 8CC\	8e/L 8c/ 8G/	.	8e/	-ste-	.
8G\L 8E\ 8C\	8gg/	.	8g/	-ty!	.
8G\J 8E\ 8C\	8gg/J	.	8r	.	.
.	(32qqaa/LLL	.	.	.	.
.	32qqgg/	.	.	.	.
.	32qqff#X/JJJ|	.	.	.	.
8G\ 8E\ 8C\	8gg\)	.	4g/	Wraz	.
8r	8r	.	.	.	.
8r	8r	.	8cc\	śmier-	.
=19	=19	=19	=19	=19	=19
2.C\ 2.CC\	2.f/ 2.Bn/ 2.G^>/	.	4bn/	-tel-	.
.	.	.	8g/	-nym	.
.	.	.	(16f/LL	przej-	.
.	.	.	32g/L	.	.
.	.	.	32f/JJJ	.	.
.	.	.	8e/)	.	.
.	.	.	8d/	-mie	.
=20	=20	=20	=20	=20	=20
8C\L 8CC\	8e/L 8c/ 8G/	.	4.e/	cio-	.
8C\ 8CC\	8e/ 8c/ 8G/	.	.	.	.
8C\J 8CC\	8e/J 8c/ 8G/	.	.	.	.
8C\ 8CC\	8e/ 8c/ 8G/	.	8c/	-sem	.
8r	8r	.	8g/	To	.
8r	8r	.	8cc/	iuż	.
!!LO:LB:g=original
=21	=21	=21	=21	=21	=21
2.C\ 2.CC\	2.f/ 2.Bn/ 2.G/	.	4bn/	ro-	.
.	.	.	8g/	-dzaj	.
.	.	.	4f/	ten	.
.	.	.	8d/	Ko-	.
=22	=22	=22	=22	=22	=22
8C\ 8CC\	8e/ 8c/ 8G/	.	8e/	-bie-	.
8G\L 8E\ 8C\	8gg\L	.	8g/	-ty	.
8G\J 8E\ 8C\	8gg\J	.	8r	.	.
.	(32qqaa/LLL	.	.	.	.
.	32qqgg/	.	.	.	.
.	32qqff#X/JJJ	.	.	.	.
8G\ 8E\ 8C\	8gg\)	.	4g/	moż-	.
8r	8r	.	.	.	.
8r	8r	.	8cc\	-na	.
=23	=23	=23	=23	=23	=23
2.C\ 2.CC\	2.f/ 2.Bn/ 2.G/	.	4bn/	rów-	.
.	.	.	8g/	-nać	.
.	.	.	(16f/LL	z fle-	.
.	.	.	32g/L	.	.
.	.	.	32f/JJJ)	.	.
.	.	.	8d/	.	.
.	.	.	8g/	-tu	.
=24	=24	=24	=24	=24	=24
*tremolo	*tremolo	*	*	*	*
8C\L 8CC\	8e/L 8c/ 8G/	.	8g/	gło-	.
8C\ 8CC\	8e/ 8c/ 8G/	.	8c/	-sem	.
8C\J 8CC\	8e/J 8c/ 8G/	.	8r	.	.
*Xtremolo	*Xtremolo	*	*	*	*
!	!	!	!LO:N:vis=8	!	!
8C\ 8CC\	8e/ 8c/ 8G/	.	4r	.	.
8r	8gg\L	.	.	.	.
8r	8ccc\J	.	8cc\	Któ-	.
!!LO:LB:g=original
=25	=25	=25	=25	=25	=25
8Bn\L 8G\ 8F\ 8C\	8bbn\	.	8bn/	-re-	.
8r	8r	.	8g/	-go	.
8B\J 8G\ 8F\ 8C\	(16gg\LL	.	8g/	pie-	.
.	32aa\L	.	.	.	.
.	32gg\JJJ)	.	.	.	.
*rep	*	*	*	*	*
8B\L 8G\ 8F\ 8C\	8ff\L	.	4f/	-szczo-	.
8r	8r	.	.	.	.
8B\J 8G\ 8F\ 8C\	8dd\J	.	8d/	-ne	.
*Xrep	*	*	*	*	*
=26	=26	=26	=26	=26	=26
8c\L 8G\ 8E\ 8C\	(8.ee\L	.	8e/	ię-	.
8r	.	.	8g/	-ki	.
.	16gg\L	.	.	.	.
8c\J 8G\ 8E\ 8C\	16ccc\	.	8r	.	.
.	16eee\JJ	.	.	.	.
*rep	*	*	*	*	*
8c\L 8G\ 8E\ 8C\	8ccc\)	.	8r	.	.
8r	8r	.	8r	.	.
8c\J 8G\ 8E\ 8C\	8ccc\	.	8cc\	Ma-	.
*Xrep	*	*	*	*	*
=27	=27	=27	=27	=27	=27
8Bn\L 8G\ 8F\ 8C\	8bbn\	.	4bn/	-lu-	.
8r	8r	.	.	.	.
8B\J 8G\ 8F\ 8C\	16gg\LL	.	8g/	-ią	.
.	32aa\L	.	.	.	.
.	32gg\JJJ	.	.	.	.
*rep	*	*	*	*	*
8B\L 8G\ 8F\ 8C\	8ff\L	.	8g/	ser-	.
.	.	.	(8qb/	.	.
8r	8r	.	8.a-X/)	-de-	.
8B\J 8G\ 8F\ 8C\	8dd\J	.	.	.	.
.	.	.	16g/	-czne	.
*Xrep	*	*	*	*	*
!!LO:LB:g=original
=28	=28	=28	=28	=28	=28
8c\ 8G\ 8E\ 8C\	(16b-\LL	.	8cc\	mę-	.
.	16cc\)	.	.	.	.
8r	(16dd#X\	.	8c/	-ki.	.
.	16ee\)	.	.	.	.
8r	(16ff#X\	.	8r	.	.
.	16gg\JJ)	.	.	.	.
8c\ 8G\ 8E\ 8C\	8ccc\ 8gg\ 8ee\	f	4r	.	.
8r	8r	.	.	.	.
8r	8cc/ 8c/	.	8r	.	.
=29	=29	=29	=29	=29	=29
!	!	!LO:HP:a	!	!	!
2.r	[4.cc/ [4.c/	>	2.r	.	.
.	8cc/]L 8c/]	.	.	.	.
.	8r	.	.	.	.
.	8cc/J 8c/	.	.	.	.
=	=	=	=	=	=
4r	[4.cc/ [4.c/	.	4r	.	.
8r	.	.	8r	.	.
!LO:N:vis=4	!LO:TX:b:t=V&colon; S&colon;	!	!	!	!
8r	8cc/] 8c/]	]	8r	.	.
!!LO:PB:g=original
=30||	=30||	=30||	=30||	=30||	=30||
8r	8r	.	8cc\	Kie-	.
8r	8r	.	8cc\	-dy	.
=31	=31	=31	=31	=31	=31
8AA-X\L	4ccc\ 4cc\	p	4cc\	mi-	.
8c\ 8A-X\ 8E-X\	.	.	.	.	.
8c\J 8A-\ 8E-\	8aa-X\ 8a-X\	.	8a-X/	-nie	.
*rep	*	*	*	*	*
8AA-\L	4aa-\ 4a-\	.	4a-/	oś-	.
8c\ 8A-\ 8E-\	.	.	.	.	.
8c\J 8A-\ 8E-\	8ccc\ 8cc\	.	8cc\	-wiad-	.
*Xrep	*	*	*	*	*
=32	=32	=32	=32	=32	=32
8GG\L	8bb-\L 8b-X\	.	8b-X/	-cze-	.
8d-X\ 8B-\ 8E-X\	8ee-X\J 8e-X\	.	8e-X/	-nie	.
8d-\J 8B-\ 8E-\	8r	.	8r	.	.
*rep	*	*	*	*	*
8GG\L	8r	.	8r	.	.
8d-\ 8B-\ 8E-\	8ee-/L 8e-/	.	8e-/	Pan-	.
8d-\J 8B-\ 8E-\	8ee-/J 8e-/	.	8e-/	-na	.
*Xrep	*	*	*	*	*
=33	=33	=33	=33	=33	=33
.	8qgg/	.	(8qg/	.	.
*^	*	*	*	*	*
4.E-X/	8E-\L	8ff/L 8f/	.	4f/)	być	.
.	8d-X\ 8B-\	8r	.	.	.	.
.	8d-\J 8B-\	8ee-X/J 8e-X/	.	8e-X/	prze-	.
*rep	*rep	*	*	*	*	*
4.E-/	8E-\L	4ff\ 4f\	.	4f/	-sta-	.
.	8d-\ 8B-\	.	.	.	.	.
.	8d-\J 8B-\	8gg\ 8g\	.	8g/	-ie	.
*Xrep	*Xrep	*	*	*	*	*
*v	*v	*	*	*	*	*
!!LO:LB:g=original
=34	=34	=34	=34	=34	=34
8AA-X\L	8bb-\L 8b-\	.	8b-/	fle-	.
8c\ 8A-X\ 8E-X\	8aa-X\J 8a-X\	.	8a-X/	-tem	.
8c\J 8A-\ 8E-\	8r	.	8r	.	.
*rep	*	*	*	*	*
8AA-\L	8r	.	8r	.	.
8c\ 8A-\ 8E-\	8ccc\L 8cc\	.	8cc\	Ma	.
8c\J 8A-\ 8E-\	8ccc\J 8cc\	.	8cc\	peł-	.
*Xrep	*	*	*	*	*
=35	=35	=35	=35	=35	=35
8AA-X\L	4ccc\ 4cc\	.	4cc\	-niej-	.
8c\ 8A-X\ 8E-X\	.	.	.	.	.
8c\J 8A-\ 8E-\	8aa-X\ 8a-X\	.	8a-X/	-sze	.
*rep	*	*	*	*	*
8AA-\L	4aa-\ 4a-\	.	4a-/	gło-	.
8c\ 8A-\ 8E-\	.	.	.	.	.
8c\J 8A-\ 8E-\	8ccc\ 8cc\	.	8cc\	-su	.
*Xrep	*	*	*	*	*
=36	=36	=36	=36	=36	=36
8EE-X\L	8bb-\L 8b-\	.	8b-X/	brzmie-	.
8B-\ 8G\ 8E-X\	8ee-X\J 8e-X\	.	8e-X/	-nie	.
8B-\J 8G\ 8E-\	8r	.	8r	.	.
*rep	*	*	*	*	*
8EE-\L	8r	.	8r	.	.
8B-\ 8G\ 8E-\	8r	.	8r	.	.
8B-\J 8G\ 8E-\	8bb-\ 8b-\	.	[8b-/	Któ-	.
*Xrep	*	*	*	*	*
!!LO:LB:g=original
=37	=37	=37	=37	=37	=37
*^	*	*	*	*	*
4.E-X/	8E-\L	8bb-\L 8b-\	.	8b-/]	.	.
.	8B-\ 8G\	8eee-X\ 8ee-X\	.	8ee-X\	-re	.
.	8B-\J 8G\	8gg\J 8g\	.	8g/	po-	.
4.BB-/	8BB-\L	8aa-X\L 8a-X\	.	8a-X/	-rów-	.
!LO:SIC:v:n=2:s=8A-	!	!	!	!	!	!
.	8B-\ 8A\ 8D\	8ff\ 8f\	.	8f/	-na	.
!LO:SIC:v:n=2:s=8A-	!	!	!	!	!	!
.	8B-\J 8A\ 8D\	8bb-\J 8b-\	.	8b-/	z Klar-	.
=38	=38	=38	=38	=38	=38	=38
4.E-X/	8E-\L	(16b-/LL	.	8b-/	-ne-	.
.	.	16e-X/	.	.	.	.
.	8B-\ 8G\	16g/	.	8e-X/	-tem	.
.	.	16cc/J)	.	.	.	.
.	8B-\J 8G\	8b-/J	.	8r	.	.
*rep	*rep	*	*	*	*	*
4.E-/	8E-\L	(16g/LL	.	(16G/LL	Klu	.
.	.	16b-/	.	16B-/JJ)	.	.
.	8B-\ 8G\	16ee-X/	.	(16e-/LL	lu	.
.	.	16ff/J)	.	16f/JJ)	.	.
.	8B-\J 8G\	8ee-/J	.	8e-/	la	.
*Xrep	*Xrep	*	*	*	*	*
=39	=39	=39	=39	=39	=39	=39
4.BB-/	8BB-\L	(16ccc\LL	.	16cc/LL	Klu	.
.	.	16bb-\	.	16b-/JJ	.	.
!LO:SIC:v:n=2:s=8A-	!	!	!	!	!	!
.	8B-\ 8A\ 8F\	16aa-X\	.	16a-X/LL	lu	.
.	.	16ff\J)	.	16f/JJ	.	.
!LO:SIC:v:n=2:s=8A-	!	!	!	!	!	!
.	8B-\J 8A\ 8F\	8dd\J	.	8e-X/	la	.
*rep	*rep	*	*	*	*	*
4.BB-/	8BB-\L	(16cc/LL	.	4r	.	.
.	.	16b-/	.	.	.	.
!LO:SIC:v:n=2:s=8A-	!	!	!	!	!	!
.	8B-\ 8A\ 8F\	16a-X/	.	.	.	.
.	.	16f/J)	.	.	.	.
!LO:SIC:v:n=2:s=8A-	!	!	!	!	!	!
.	8B-\J 8A\ 8F\	8d/J	.	8r	.	.
*Xrep	*Xrep	*	*	*	*	*
!!LO:LB:g=original
=40	=40	=40	=40	=40	=40	=40
4.E-X/	8E-\L	(16e-X/LL	.	(16e-X/LL	Klu	.
.	.	16g/	.	16g/JJ)	.	.
.	8B-\ 8G\	16b-/	.	(16b-/LL	lu	.
.	.	16cc/J)	.	16cc/JJ)	.	.
.	8B-\J 8G\	8b-/J	.	8b-/	la	.
*rep	*rep	*	*	*	*	*
4.E-/	8E-\L	(16g/LL	.	4r	.	.
.	.	16b-/	.	.	.	.
.	8B-\ 8G\	16ee-X/	.	.	.	.
.	.	16ff/J)	.	.	.	.
.	8B-\J 8G\	8ee-/J	.	8r	.	.
*Xrep	*Xrep	*	*	*	*	*
=41	=41	=41	=41	=41	=41	=41
4.BB-/	8BB-\L	(16ccc\LL	.	2.r	.	.
.	.	16bb-X\)	.	.	.	.
!LO:SIC:v:n=2:s=8A-	!	!	!	!	!	!
.	8B-\ 8A\ 8F\	16aa-X'\	.	.	.	.
.	.	16gg'\	.	.	.	.
!LO:SIC:v:n=2:s=8A-	!	!	!	!	!	!
.	8B-\J 8A\ 8F\	16ff'\	.	.	.	.
.	.	16ee-X'\JJ	.	.	.	.
4.BB-/	8BB-\L	(16dd/LL	.	.	.	.
.	.	16cc/)	.	.	.	.
!LO:SIC:v:n=2:s=8A-	!	!	!	!	!	!
.	8B-\ 8A\ 8D\	16b-'/	.	.	.	.
.	.	16a-X'/	.	.	.	.
!LO:SIC:v:n=2:s=8A-	!	!	!	!	!	!
.	8B-\J 8A\ 8D\	16g'/	.	.	.	.
.	.	16f'/JJ	.	.	.	.
*v	*v	*	*	*	*	*
=42	=42	=42	=42	=42	=42
8B-\ 8G\ 8E-X\	8e-X/	.	4r	.	.
8r	8d#X/L	.	.	.	.
8r	8d#/J	.	8r	.	.
4.A\ 4.F#X\ 4.BBn\	8d#/L	.	8r	.	.
.	8d#/	.	8d#X/	Wreś-	.
.	8d#/J	.	8d#/	-cie	.
!!LO:PB:g=original
=43||	=43||	=43||	=43||	=43||	=43||
*k[f#c#g#d#]	*k[f#c#g#d#]	*	*k[f#c#g#d#]	*	*
!	!	!LO:DY:rj	!	!	!
4G#\ 4E\	(4e/	p	4e/	gdy	.
8B\ 8G#\ 8En\ 8D#\	8g#/	.	8g#/	iuż	.
4A\ 4E\ 4C#\	4a/	.	4a/	hy-	.
8A\ 8E\ 8AA\	8cc#/ 8a/ 8e/)	.	8cc#\	-men	.
=44	=44	=44	=44	=44	=44
8B\L 8G#\ 8E\	8ee/L 8g#/ 8e^/	.	8ee\	łą-	.
8B\J 8G#\ 8E\	8b/J 8g#/ 8e^/	.	8b\	-czy	.
8r	8r	.	8r	.	.
4r	4r	.	8r	.	.
.	.	.	8b/	Dę-	.
8r	8r	p	8b\	-ta	.
=45	=45	=45	=45	=45	=45
(4A\ 4D#\ 4BB'\	4b/	.	4b/	har-	.
8A\ 8D#\ 8BB'\	8f#/	.	8f#/	-mo-	.
4A\ 4D#\ 4BB'\	4f#/	.	4f#/	-nja	.
8B\ 8F#\ 8D#\ 8BB'\)	8a/	.	8a/	się	.
!!LO:LB:g=original
=46	=46	=46	=46	=46	=46
4B\ 4G#\ 4E\	4g#/	.	4g#/	koń-	.
8B\ 8G#\ 8E\	8b/	.	8b/	-czy	.
4c#\	4g#/ 4e/	.	4g#/	Pan-	.
8c#\	8g#/ 8e/	.	8g#/	-na	.
=47	=47	=47	=47	=47	=47
4B#X\	4g#/ 4d#/	.	4g#/	przez	.
8B#\	8g#/ 8d#/	.	8g#/	te	.
4c#\	4g#/ 4e/	.	4g#/	związ-	.
8Bn\	8g#/ 8dn/	.	8g#/	-ki	.
=48	=48	=48	=48	=48	=48
*	*^	*	*	*	*
4.A\	4g#/	4.c#\	.	4g#/	no-	.
.	8f#/	.	.	8f#/	-we	.
8A\ 8AA\	8f#/ 8c#/	8ryy	.	8f#/	Gry-	.
8r	8r	8ryy	.	8.a/	-wa	.
8r	8r	8ryy	.	.	.	.
.	.	.	.	16cc#\	du-	.
*	*v	*v	*	*	*	*
=49	=49	=49	=49	=49	=49
8B\ 8BB\	8g#/ 8e/	.	(16cc#\LL	-e-	.
.	.	.	16b\JJ)	.	.
8r	8r	.	8g#/	-ty	.
8r	8r	.	8e/	skrzy-	.
8B\ 8F#\ 8BB\	8a/ 8d#/	.	(8B/L	-pco-	.
8r	8r	.	8.g#/	.	.
8r	8r	.	.	.	.
.	.	.	16f#/Jk)	.	.
!!LO:LB:g=original
=50	=50	=50	=50	=50	=50
!	!LO:TX:t=P:problem=mixed beam	!LO:DY:rj	!	!	!
8B\ 8G#\ 8E\	8g#/L 8e/	mf	8e/	-we.	.
8r	8ee\	.	8ee/	la	.
8r	8ee\J	.	8ee/	la	.
*tremolo	*	*	*	*	*
8B\L 8F#\ 8D#\ 8BB\	(16dd#/LL	.	(16dd#/LL	la	.
.	16cc#/	.	16cc#/JJ)	.	.
8B\ 8F#\ 8D#\ 8BB\	16b/	.	(16b/LL	.	.
.	16a/	.	16a/JJ)	.	.
8B\J 8F#\ 8D#\ 8BB\	16g#/	.	(16g#/LL	.	.
.	16f#/JJ)	.	16f#/JJ)	.	.
=51	=51	=51	=51	=51	=51
8B\ 8G#\ 8E\	8e/	.	8e/	la	.
!	!	!LO:DY:rj	!	!	!
8r	8eee\L 8ee\	f	8r	.	.
8r	8eee\J 8ee\	.	8r	.	.
8B\L 8F#\ 8D#\ 8BB\	(16ddd#\LL	.	4r	.	.
.	16ccc#\	.	.	.	.
8B\ 8F#\ 8D#\ 8BB\	16bb\	.	.	.	.
.	16aa\	.	.	.	.
8B\J 8F#\ 8D#\ 8BB\	16gg#\	.	8r	.	.
.	16ff#\JJ	.	.	.	.
=52	=52	=52	=52	=52	=52
!	!	!	!	!	!LO:DY:a
8B\ 8G#\ 8E\	8ee\L)	.	8e/	la	p
!	!	!LO:DY:rj	!	!	!
8r	8ee\	mf	8ee\	.	.
8r	8ee\J	.	8ee\	.	.
8B\L 8F#\ 8D#\ 8BB\	16dd#/LL	.	(16dd#\LL	.	.
.	16cc#/	.	16cc#\JJ)	.	.
8B\ 8F#\ 8D#\ 8BB\	16b/	.	(16b/LL	.	.
.	16a/	.	16a/JJ)	.	.
8B\J 8F#\ 8D#\ 8BB\	16g#/	.	(16g#/LL	.	.
.	16f#/JJ	.	16f#/JJ)	.	.
!!LO:LB:g=original
=53	=53	=53	=53	=53	=53
8B\ 8G#\ 8E\	8e/	.	8e/	la	.
8r	8eee\L 8ee\	f	8r	.	.
8r	8eee\J 8ee\	.	8r	.	.
8B\L 8F#\ 8D#\ 8BB\	16ddd#\LL	.	4r	.	.
.	16ccc#\	.	.	.	.
8B\ 8F#\ 8D#\ 8BB\	16bb\	.	.	.	.
.	16aa\	.	.	.	.
8B\J 8F#\ 8D#\ 8BB\	16gg#\	.	8r	.	.
.	16ff#\JJ	.	.	.	.
*Xtremolo	*	*	*	*	*
=54	=54	=54	=54	=54	=54
!	!LO:TX:t=P:problem=mixed beam	!	!	!	!
8B\ 8G#\ 8E\	8ee\L	.	4r	.	.
8r	8e/	.	.	.	.
8r	8e/J	.	8r	.	.
!	!LO:TX:b:t=V&colon; S&colon;	!	!	!	!
4.Dn\ 4.GGn\	4.fn/ 4.dn/ 4.B/ 4.Gn/	.	8r	.	.
.	.	.	8gn/	Gdy	.
.	.	.	8g/	dni	.
!!LO:PB:g=original
=55||	=55||	=55||	=55||	=55||	=55||
*k[]	*k[]	*	*k[]	*	*
!	!	!LO:DY:rj	!	!	!
8C/ 8CC/	8r	p	4e/	ży-	.
8r	(8G/L	.	.	.	.
8r	8e/J 8c/)	.	8g/	-cia	.
8C/ 8CC/	8r	.	4g/	swe-	.
8r	(8G/L	.	.	.	.
8r	8e/J 8c/)	.	8cc\	-go	.
=56	=56	=56	=56	=56	=56
*rep	*	*	*	*	*
8C/ 8CC/	8r	.	4.b/	sple-	.
8r	(8G/L	.	.	.	.
8r	8f/J 8B/)	.	.	.	.
8C/ 8CC/	8r	.	8f/	-tli	.
.	.	.	(8qa/	.	.
8r	(8G/L	.	8g/)	U-	.
8r	8f/J 8B/)	.	8f/	-rok	.
*Xrep	*	*	*	*	*
=57	=57	=57	=57	=57	=57
*rep	*	*	*	*	*
8C/ 8CC/	8r	.	4e/	dla	.
8r	(8G/L	.	.	.	.
8r	8e/J 8c/)	.	8g/	nich	.
8C/ 8CC/	8r	.	4ee\	dzwięk	.
8r	(8G/L	.	.	.	.
8r	8e/J 8c/)	.	8cc\	ba-	.
*Xrep	*	*	*	*	*
=58	=58	=58	=58	=58	=58
*rep	*	*	*	*	*
8C/ 8CC/	8r	.	4.dd\	-set-	.
8r	8G/L	.	.	.	.
8r	8f/J 8B/	.	.	.	.
8C/ 8CC/	8r	.	8g/	-ti	.
8r	8G/L	.	8g/	Bo	.
8r	8f/J 8B/	.	8g/	z Wi-	.
*Xrep	*	*	*	*	*
!!LO:LB:g=original
=59	=59	=59	=59	=59	=59
8C/ 8CC/	8r	.	4cc\	-o-	.
8r	8g/L 8e/ 8c/	.	.	.	.
8r	8g/J 8e/ 8c/	.	8cc\	-lon-	.
8BB/ 8BBB/	8r	.	4g#X/	-cel-	.
8r	8g#X/L 8e/ 8d/	.	.	.	.
8r	8g#/J 8e/ 8d/	.	8g#/	-li	.
=60	=60	=60	=60	=60	=60
*^	*	*	*	*	*
4.AA/	8AA\L	16a/LL	.	8a/	stron	.
.	.	16e/	.	.	.	.
.	8A\ 8E\ 8C\	16d#X/	.	8r	.	.
.	.	16e/	.	.	.	.
.	8A\J 8E\ 8C\	16a/	.	8r	.	.
.	.	16cc/JJ	.	.	.	.
4.C/	8C\L	8ee\L	.	8r	.	.
.	8A\ 8E\	16dd\L	.	8e/	Smęt-	.
.	.	16cc\	.	.	.	.
.	8A\J 8E\	16b\	.	8a/	-ny	.
.	.	16a\JJ	.	.	.	.
=61	=61	=61	=61	=61	=61	=61
4.D/	8D\L	8.b/L	.	8.b/L	lu-	.
.	8B\ 8G\	.	.	.	.	.
.	.	16a/K	.	16a/Jk	.	.
.	8B\J 8G\	8g/J	.	8g/	-by	.
4.D/	8D\L	16ee\LL	.	4d/	pły-	.
.	.	16dd\J	.	.	.	.
.	8c\ 8A\ 8F#X\	8cc\	.	.	.	.
.	8c\J 8A\ 8F#\	8a\J	.	8f#X/	-nie	.
*v	*v	*	*	*	*	*
=62	=62	=62	=62	=62	=62
8B\ 8G\	8g/L	.	8g/	ton	.
8r	(16f#X/L	.	8r	.	.
.	16g/	.	.	.	.
8r	16b/	.	8r	.	.
.	16dd/JJ)	.	.	.	.
!	!	!LO:DY:rj	!	!	!
8G/ 8GG/	8gg\ 8dd\ 8b\	f	8r	.	.
8r	8r	.	8g/	A	.
8r	8r	.	8g/	mąż	.
!!LO:LB:g=original
=63	=63	=63	=63	=63	=63
!	!	!LO:DY:rj	!	!	!
8C/ 8CC/	8r	p	4e/	co	.
8r	(8G/L	.	.	.	.
8r	8e/J 8c/)	.	8g/	z grzecz-	.
8C/ 8CC/	8r	.	4g/	-no-	.
8r	8G/L	.	.	.	.
8r	8e/J 8c/	.	8cc\	-ści	.
=64	=64	=64	=64	=64	=64
8GG/ 8GGG/	8d/ 8B/ 8G/	.	8b/	sły-	.
!	!	!LO:DY:rj	!	!	!
8G\L 8GG\	8g/L	f	8g/	-nie	.
8G\J 8GG\	8g/J	.	8r	.	.
8G\L 8GG\	(8g/L	.	8r	.	.
8F\	8f/)	.	8g/	Wiel-	.
8D\J	8d'/J	.	8g/	-bi	.
=65	=65	=65	=65	=65	=65
8C/ 8CC/	8r	p	4e/	ba-	.
8r	(8G/L	.	.	.	.
8r	8e/J 8c/)	.	8g/	-sem	.
8C/ 8CC/	8r	.	4g/	swą	.
8r	(8G/L	.	.	.	.
8r	8e/J 8c/)	.	8cc\	bo-	.
=66	=66	=66	=66	=66	=66
8GG/ 8GGG/	8d/ 8B/ 8G/	.	8b/	-gi-	.
8G\L 8GG\	8g'/L	f	8g/	-nie	.
8G\J 8GG\	8g'/J	.	8r	.	.
8G\L 8GG\	(8g/L	.	8r	.	.
8F\	8f/)	.	8r	.	.
8D\J	8d'/J	.	8g/	A	.
!!LO:LB:g=original
=67	=67	=67	=67	=67	=67
8C/L 8CC/	8e/L 8c/	.	8e/	z cza-	.
8C/J 8CC/	8g/J 8e/ 8c/	.	8g/	-sem	.
16r	16r	.	16r	.	.
16C/ 16CC/	16g/ 16e/ 16c/	.	16g/	głos	.
8GG/L 8GGG/	8g#X/L 8e/ 8d/	.	8g#X/	mi-	.
8GG/J 8GGG/	8g#/J 8e/ 8d/	.	8g#/	-łej	.
16r	16r	.	16r	.	.
16BB/ 16BBB/	16g#/ 16e/ 16d/	.	16g#/	gos-	.
=68	=68	=68	=68	=68	=68
8AA/L 8AAA/	8a/L 8e/ 8c/	.	8a/	-po-	.
8AA/J 8AAA/	8a/J 8e/ 8c/	.	8a/	-si	.
8r	8r	.	8r	.	.
4r	4r	.	4cc\	Sil-	.
8r	8r	.	8cc\	-niej	.
=69	=69	=69	=69	=69	=69
*	*^	*	*	*	*
4A-X\ 4AA-X\	(4f#X'/	(16c\LL	.	4ee-X\	wzm[a]-	.
.	.	16d\	.	.	.	.
.	.	16e-X\	.	.	.	.
.	.	16d\	.	.	.	.
8A-\ 8AA-\	8f#'/	16e-\	.	8cc\	-ga	.
.	.	16d\JJ)	.	.	.	.
4A-\ 4AA-\	4f#'/	(16c\LL	.	4cc\	się	.
.	.	16d\	.	.	.	.
.	.	16e-\	.	.	.	.
.	.	16d\	.	.	.	.
8A-\ 8AA-\	8f#'/)	16e-\	.	8f#X/	i	.
.	.	16c\JJ)	.	.	.	.
!!LO:PB:g=original
=70	=70	=70	=70	=70	=70	=70
!	!	!	!LO:DY:rj	!	!	!
8G\L 8GG\	4.g/	16B\LL	f	4.g/	wzno-	.
.	.	16c\	.	.	.	.
8BB\	.	16d\	.	.	.	.
.	.	16c\	.	.	.	.
8D\J	.	16d\	.	.	.	.
.	.	16c\JJ	.	.	.	.
8G\ 8GG\	8g/	8B\	.	8g/	-si	.
!	!	!	!LO:DY:rj	!	!	!
8r	8gg\L 8g\	8ryy	p	8g/	az	.
8r	8gg\J 8g\	8ryy	.	8g/	wy-	.
*	*v	*v	*	*	*	*
=71	=71	=71	=71	=71	=71
2.c\ 2.A\ 2.F#X\ 2.D\	4aa\ 4a\	.	4a\	-raź-	.
.	8bb\ 8b\	.	8b/	-nie	.
.	4ccc\ 4cc\	.	4cc\	i	.
.	8ddd\ 8dd\	.	8dd\	do-	.
=72	=72	=72	=72	=72	=72
8B\ 8G\	8bb\ 8b\	.	8b\	-bit-	.
8r	24dd\LL	.	8b/	-nie	.
.	24ee\	.	.	.	.
.	24dd\J	.	.	.	.
8r	8b\J	.	8r	.	.
8G/ 8GG/	8gg\ 8dd\ 8b\	f	8r	.	.
8r	8bb\L 8b\	p	8b/	Pa-	.
8r	8gg\J 8g\	.	8g/	-saż	.
=73	=73	=73	=73	=73	=73
2.c\ 2.A\ 2.F#X\ 2.D\	4aa\ 4a\	.	4a\	jak	.
.	8bb\ 8b\	.	8b/	na	.
.	4ccc\ 4cc\	.	4cc\	skrzyp-	.
.	8ddd\ 8dd\	.	8dd\	-cach	.
!!LO:LB:g=original
=74	=74	=74	=74	=74	=74
8B\ 8G\	8bb\ 8b\	.	8b/	wy-	.
!	!	!LO:DY:rj	!	!	!
8r	16g/LL	f	8g/	-tnie.	.
.	(32a/L	.	.	.	.
.	32b/	.	.	.	.
8r	32cc/	.	8r	.	.
.	32dd/	.	.	.	.
.	32ee/	.	.	.	.
.	32ff#X/JJJ	.	.	.	.
8r	8gg\)	.	4r	.	.
*clefG2	*	*	*	*	*
(16g\LL	(16gg\LL	.	.	.	.
32a\L	32aa\L	.	.	.	.
32b\	32bb\	.	.	.	.
32cc\	32ccc\	.	8r	.	.
32dd\	32ddd\	.	.	.	.
32ee\	32eee\	.	.	.	.
32ff#X\JJJ	32fff#X\JJJ	.	.	.	.
=75	=75	=75	=75	=75	=75
8gg\)	8ggg\)	.	4r	.	.
8r	8r	.	.	.	.
8r	8r	.	8r	.	.
*clefF4	*	*	*	*	*
!	!	!LO:DY:rj	!	!	!
8G/ 8GG/	8gg\ 8dd\ 8b\ 8g\	f	8r	.	.
8r	8r	.	8g/	Gdy	.
8r	8r	.	8g/	zaś	.
.	.	p	.	.	.
=76	=76	=76	=76	=76	=76
*^	*	*	*	*	*
8F\L	4.F/	8b/	.	4b/	mąż	.
8d\ 8B\ 8G\	.	8r	.	.	.	.
!	!	!LO:TUP:b:problem=klamra łukowa i cyfra	!	!	!	!
8d\J 8B\ 8G\	.	24g/LL	.	8r	.	.
.	.	24a/	.	.	.	.
.	.	24g/JJ	.	.	.	.
*rep	*rep	*	*	*	*	*
8F\L	4.F/	8b/	.	8g/	mo-	.
8d\ 8B\ 8G\	.	8r	.	8a/	-ra-	.
!	!	!LO:TUP:b:problem=klamra łukowa i cyfra	!	!	!	!
8d\J 8B\ 8G\	.	24g/LL	.	8b/	-łów	.
.	.	24a/	.	.	.	.
.	.	24g/JJ	.	.	.	.
*Xrep	*Xrep	*	*	*	*	*
!!LO:LB:g=original
=77	=77	=77	=77	=77	=77	=77
4.E/	8E\L	8cc\	.	8cc\	u-	.
.	8c\ 8G\	8r	.	8g/	-czy	.
!	!	!LO:TUP:b:problem=klamra łukowa i cyfra	!	!	!	!
.	8c\J 8G\	24g/LL	.	8r	.	.
.	.	24a/	.	.	.	.
.	.	24g/JJ	.	.	.	.
*rep	*rep	*	*	*	*	*
4.E/	8E\L	8cc\	.	8r	.	.
.	8c\ 8G\	8r	.	8g/	I-	.
!	!	!LO:TUP:b:problem=klamra łukowa i cyfra	!	!	!	!
.	8c\J 8G\	24g/LL	.	8g/	-mość	.
.	.	24a/	.	.	.	.
.	.	24g/JJ	.	.	.	.
*Xrep	*Xrep	*	*	*	*	*
=78	=78	=78	=78	=78	=78	=78
4.BB/	8BB\L	8dd\	.	4dd\	jak	.
.	8G\ 8D\	8r	.	.	.	.
!	!	!LO:TUP:b:problem=klamra łukowa i cyfra	!	!	!	!
.	8G\J 8D\	24g/LL	.	8g/	al-	.
.	.	24a/	.	.	.	.
.	.	24g/JJ	.	.	.	.
*rep	*rep	*	*	*	*	*
4.BB/	8BB\L	8dd\	.	4dd\	-tów-	.
.	8G\ 8D\	8r	.	.	.	.
!	!	!LO:TUP:b:problem=klamra łukowa i cyfra	!	!	!	!
.	8G\J 8D\	24g/LL	.	8g/	-ka	.
.	.	24a/	.	.	.	.
.	.	24g/JJ	.	.	.	.
*Xrep	*Xrep	*	*	*	*	*
=79	=79	=79	=79	=79	=79	=79
!	!	!	!LO:DY:rj	!	!	!
4.C/	8C\L	(16e/LL	f	8g/	mru-	.
.	.	16f/	.	.	.	.
.	8G\ 8E\	16g/	.	8cc\	-czy	.
.	.	16f/	.	.	.	.
.	8G\J 8E\	16e/	.	8r	.	.
.	.	16d/JJ)	.	.	.	.
8G\ 8E\ 8C\	8ryy	8c/	.	8r	.	.
8r	8ryy	8r	.	8cc\	A	.
8r	8ryy	8r	.	8cc\	co	.
.	.	.	p	.	.	.
*v	*v	*	*	*	*	*
=80	=80	=80	=80	=80	=80
8D/ 8DD/	8b/ 8g/ 8d/	.	4b/	dziw-	.
8r	8r	.	.	.	.
8r	8r	.	8b/	-na	.
8C/ 8CC/	8a/ 8f#X/ 8d/	.	4a/	na-	.
8r	8r	.	.	.	.
8r	8r	.	8a/	-wet	.
!!LO:LB:g=original
=81	=81	=81	=81	=81	=81
!	!	!LO:DY:rj	!	!	!
4BB/ 4BBB/	4dd/ 4g/ 4d/	sf	8dd\	cza-	.
.	.	.	8dd\	-sem	.
8r	8r	.	8r	.	.
8C/ 8CC/	8a/ 8e/ 8c/	.	4e/	o-	.
8r	8r	.	.	.	.
8r	8r	.	8a/	-de-	.
=82	=82	=82	=82	=82	=82
8D/ 8DD/	8b/ 8g/ 8d/	.	4b/	-zwie	.
8r	8r	.	.	.	.
8r	8r	.	8g/	się	.
8D/ 8DD/	8dd/ 8f#X/ 8d/	.	4dd\	Kon-	.
8r	8r	.	.	.	.
8r	8r	.	8f#X/	-tra-	.
=83	=83	=83	=83	=83	=83
8G\L 8GG\	8g\L	.	8g/	-ba-	.
8D\	8b\	.	8G/	-sem.	.
8BB\J	8dd\J	.	8r	.	.
8G/ 8GG/	8gg\ 8g\	.	8r	.	.
8r	8r	.	8g/	Póź-	.
!	!LO:TX:b:t=V&colon; S&colon;	!	!	!	!
8r	8r	.	8g/	-niej	.
!!LO:PB:g=original
=84||	=84||	=84||	=84||	=84||	=84||
*	*^	*	*	*	*
2.E-X/ 2.EE-X/	2.cc#X/	(>16g\LL	.	4b-X/	dzia-	.
.	.	16a\	.	.	.	.
.	.	16b-X\	.	.	.	.
.	.	16a\	.	.	.	.
.	.	16b-\	.	8g/	-tek	.
.	.	16a\JJ)	.	.	.	.
.	.	(>16g\LL	.	4b-/	licz-	.
.	.	16a\	.	.	.	.
.	.	16b-\	.	.	.	.
.	.	16a\	.	.	.	.
.	.	16b-\	.	8g/	-ne	.
.	.	16g\JJ)	.	.	.	.
*	*v	*v	*	*	*	*
=85	=85	=85	=85	=85	=85
8D/ 8DD/	16dd/LL 16f#X/|	.	8f#X/	ro-	.
.	(16f#/	.	.	.	.
8r	16a/	.	8a/	-je	.
.	16g/	.	.	.	.
8r	16f#/	.	8r	.	.
.	16e-X/JJ)	.	.	.	.
8A\ 8F#X\ 8D\	(16d/LL	.	8r	.	.
.	16e-/	.	.	.	.
8r	16d/	.	8dd\	Pisz-	.
.	16cc/	.	.	.	.
8r	16b-X/	.	8cc\	-czą	.
.	16a/JJ)	.	.	.	.
=86	=86	=86	=86	=86	=86
*	*^	*	*	*	*
2.E-X/ 2.EE-X/	2.cc#X/	(16g\LL	.	4b-X/	skrze-	.
.	.	16a\	.	.	.	.
!	!LO:SIC:v:s=16b-	!	!	!	!	!
.	.	16b\	.	.	.	.
.	.	16a\	.	.	.	.
!	!LO:SIC:v:s=16b-	!	!	!	!	!
.	.	16b\	.	8g/	-czą	.
.	.	16a\JJ	.	.	.	.
.	.	16g\LL	.	4b-/	jak	.
.	.	16a\	.	.	.	.
!	!LO:SIC:v:s=16b-	!	!	!	!	!
.	.	16b\	.	.	.	.
.	.	16a\)	.	.	.	.
!	!LO:SIC:v:s=16b-	!	!	!	!	!
.	.	16b\	.	8g/	o-	.
.	.	16g\JJ	.	.	.	.
*	*v	*v	*	*	*	*
!!LO:LB:g=original
=87	=87	=87	=87	=87	=87
8D/ 8DD/	16dd/LL 16f#X'/	.	8f#X/	-bo-	.
.	(16f#/	.	.	.	.
8r	16a/	.	8a/	-je	.
.	16g/	.	.	.	.
8r	16f#/	.	8r	.	.
.	16e-X/JJ)	.	.	.	.
8A\ 8F#X\ 8D\	(16d/LL	.	8r	.	.
.	16e-/	.	.	.	.
8r	16d/	.	8r	.	.
.	16cc/	.	.	.	.
8r	16b-X/	.	8d/	A	.
.	16a/JJ)	.	.	.	.
=88	=88	=88	=88	=88	=88
*	*^	*	*	*	*
(2.E-X/ (2.EE-X/	2.cc#X/	(>16g\LL	.	4g/	mę-	.
.	.	16a\	.	.	.	.
.	.	16b-X\	.	.	.	.
.	.	16a\	.	.	.	.
.	.	16b-\	.	8g/	-ża	.
.	.	16a\JJ	.	.	.	.
.	.	16g\LL	.	8g/	Któ-	.
.	.	16a\	.	.	.	.
.	.	16b-X\	.	8g/	-ry	.
.	.	16a\	.	.	.	.
.	.	16b-\	.	8g/	był	.
.	.	16g\JJ)	.	.	.	.
*	*v	*v	*	*	*	*
=89	=89	=89	=89	=89	=89
8D/ 8DD/))	16dd/LL 16f#X'/	.	8f#X/	Boz-	.
.	(16d/	.	.	.	.
8r	16a/	.	8d/	-kiem	.
.	16g/	.	.	.	.
8r	16f#/	.	8r	.	.
.	16e-X/JJ)	.	.	.	.
8A\ 8F#X\ 8D\	(16d/LL	.	8r	.	.
.	16e-/	.	.	.	.
8r	16d/	.	8d/	Zo-	.
.	16cc/	.	.	.	.
8r	16b-X/	.	8d/	-wie	.
.	16a/JJ)	.	.	.	.
!!LO:LB:g=original
=90	=90	=90	=90	=90	=90
*	*^	*	*	*	*
2.E-X/ 2.EE-X/	2.cc#X/	(>16g\LL	.	4g/	świat	.
.	.	16a\	.	.	.	.
.	.	16b-X\	.	.	.	.
.	.	16a\	.	.	.	.
.	.	16b-\	.	8g/	an-	.
.	.	16a\JJ)	.	.	.	.
.	.	(>16g\LL	.	4b-X/	-giel-	.
.	.	16a\	.	.	.	.
.	.	16b-\	.	.	.	.
.	.	16a\	.	.	.	.
.	.	16b-\	.	8g/	-skim	.
.	.	16g\JJ)	.	.	.	.
*	*v	*v	*	*	*	*
=91	=91	=91	=91	=91	=91
!	!	!LO:DY:rj	!	!	!
8D/ 8DD/	8dd/ 8f#X/	f	4.dd\	roz-	.
8F#X/L 8FF#X/	8aa\L 8a\	.	.	.	.
8A/J 8AA/	8ff#X\J 8f#X\	.	.	.	.
8D/ 8DD/	8dd/ 8d/	.	8d/	-kiem	.
8r	8r;	.	8r;	.	.
=92||	=92||	=92||	=92||	=92||	=92||
*M2/4	*M2/4	*	*M2/4	*	*
!	!	!	!LO:TX:a:t=Allegro	!	!
8r	8r	.	16d/	Jej-	.
.	.	.	16d/	-mość	.
.	.	p	.	.	.
=93	=93	=93	=93	=93	=93
(8C/L 8CC'/	(>8f#X/L 8d/ 8A'/	.	8f#X/	czy-	.
8C/ 8CC'/	8f#/ 8d/ 8A'/	.	8d/	-niąc	.
8C/ 8CC'/	8f#/ 8d/ 8A'/	.	8f#/	czas	.
8C/J 8CC'/)	8f#/J 8d/ 8A'/)	.	8d/	prze-	.
!!LO:LB:g=original
=94	=94	=94	=94	=94	=94
8BB/ 8BBB/	8g/ 8d/ 8G/	.	8g/	-kor-	.
.	(8qqee/	.	.	.	.
8r	(16dd\LL)	.	8d/	-nie	.
.	32cc#X\L	.	.	.	.
.	32dd\JJJ)	.	.	.	.
4r	8gg\	.	8r	.	.
.	8r	.	16d/	Naj	.
.	.	.	16d/	zaw-	.
=95	=95	=95	=95	=95	=95
*tremolo	*tremolo	*	*	*	*
8F#X/L 8FF#X/	(>8a/L 8d'/	.	8a/	-źię-	.
8F#/ 8FF#/	8a/ 8d'/	.	8d/	-ciej	.
8F#/ 8FF#/	8a/ 8d'/	.	8.a/	dmie	.
8F#/J 8FF#/	8a/J 8d'/)	.	.	.	.
.	.	.	16cc\	w Wal-	.
*Xtremolo	*Xtremolo	*	*	*	*
=96	=96	=96	=96	=96	=96
8G\ 8GG\	8b/ 8g/ 8d/	.	8b/	-tor-	.
.	8qee/	.	.	.	.
8r	(16dd\LL	.	8g/	-nie	.
.	32cc#X\L	.	.	.	.
.	32dd\JJJ)	.	.	.	.
4r	8g/	.	8r	.	.
.	8r	.	16g/	Bi-	.
.	.	.	16g/	-ie	.
!!LO:PB:g=original
=97	=97	=97	=97	=97	=97
(16F#X\LL 16D#X\	8r	f	8b/	w Ko-	.
16B\	.	.	.	.	.
16F#\ 16D#\	8ff#X\L 8dd#X\ 8b'\	.	8b/	-tły	.
16B\JJ	.	.	.	.	.
*rep	*	*	*	*	*
16F#\LL 16D#\	8bb\J 8ff#\ 8b'\	.	8r	.	.
16B\	.	.	.	.	.
16F#\ 16D#\	8r	.	16b/	i	.
16B\JJ)	.	.	16b/	Cym-	.
*Xrep	*	*	*	*	*
=98	=98	=98	=98	=98	=98
(16G\LL 16E\	8r	.	8g/	-ba-	.
16B\	.	.	.	.	.
16G\ 16E\	8gg\L 8ee\ 8b'\	.	8g/	-ły	.
16B\JJ	.	.	.	.	.
*rep	*	*	*	*	*
16G\LL 16E\	8eee\J 8gg\ 8ee'\	.	8r	.	.
16B\	.	.	.	.	.
16G\ 16E\	8r	.	16b/	By	.
16B\JJ)	.	.	16g/	u-	.
*Xrep	*	*	*	*	*
=99	=99	=99	=99	=99	=99
(16A\LL 16F#X\	8r	.	8.dd\	-śmier-	.
16d\	.	.	.	.	.
16A\ 16F#\	8aa\L 8ff#X\ 8dd'\	.	.	.	.
16d\JJ	.	.	16dd\	-żyć	.
*rep	*	*	*	*	*
16A\LL 16F#\	8ddd\J 8aa\ 8dd'\	.	8.dd\	swe	.
16d\	.	.	.	.	.
16A\ 16F#\	8r	.	.	.	.
16d\JJ)	.	.	16a/	za-	.
*Xrep	*	*	*	*	*
!!LO:LB:g=original
=100	=100	=100	=100	=100	=100
16B\LL 16G\	8r	.	8b/	-pa-	.
16d\	.	.	.	.	.
16B\ 16G\	8bb\ 8gg\ 8dd\	.	8g/	-ły.	.
16d\JJ	.	.	.	.	.
16B\ 16G\	16ggg\ 16bb\ 16gg\	.	8r;	.	.
16r;	16r;	.	.	.	.
=101||	=101||	=101||	=101||	=101||	=101||
*M6/8	*M6/8	*	*M6/8	*	*
8r	8r	.	16g/	I	.
.	.	.	16g/	Mę-	.
=102	=102	=102	=102	=102	=102
2.F\ 2.FF\	2.d/ 2.B/ 2.G/	p	4b/	-żul-	.
.	.	.	8g/	-ko	.
.	.	.	(8g/L	u-	.
.	.	.	8a/J)	.	.
.	.	.	8b\	-ko-	.
=103	=103	=103	=103	=103	=103
4.E\ 4.EE\	4.c/ 4.G</	.	4cc\	-cha-	.
.	.	.	8g/	-ny	.
8F\ 8FF\	8d/ 8A</	.	4a/	Zmy-	.
8r	8r	.	.	.	.
8r	8r	.	8dd\	-ka	.
!!LO:LB:g=original
=104	=104	=104	=104	=104	=104
8G\ 8GG\	8e/ 8c/	.	(8g\L	z do-	.
8r	8r	.	8ee\J)	.	.
8r	8r	.	8cc\	-mu	.
8G\ 8GG\	8f/ 8B/	.	(16g/LL	pó-	.
.	.	.	32a/L	.	.
.	.	.	32g/JJJ	.	.
8r	8r	.	8f/)	.	.
8r	8r	.	8d/	-ki	.
=105	=105	=105	=105	=105	=105
8r	8r	.	8d/	ca-	.
!LO:TX:t=P:problem=mixed beam	!LO:DY:rj	!	!	!	!
8c\L	8gg\L 8ee\ 8cc\	f	8c/	-ły,	.
8C/J	8ccc\J 8gg\ 8ee\ 8cc\	.	8r	.	.
4r;	4r;	.	8r;	.	.
.	.	.	8r	.	.
!	!LO:TX:b:t=V&colon; S&colon;	!	!	!	!
8r	8r	.	8c/	Ten	.
!!LO:PB:g=original
=106||	=106||	=106||	=106||	=106||	=106||
*k[b-]	*k[b-]	*	*k[b-]	*	*
!	!	!	!LO:TX:a:t=piu allo.	!	!
16FF/LL	8f/ 8c/ 8A/	.	8f/	Jęk,	.
(16C/	.	.	.	.	.
16D-X/	8r	.	8r	.	.
16C/	.	.	.	.	.
16BBn/	8r	.	8r	.	.
16C/JJ)	.	.	.	.	.
16CC/LL	8g/ 8e/ 8c/	.	8g/	pisk,	.
(16C/	.	.	.	.	.
16D-/	8r	.	8r	.	.
16C/	.	.	.	.	.
16BB/	8r	.	8r	.	.
16C/JJ)	.	.	.	.	.
=107	=107	=107	=107	=107	=107
*^	*	*	*	*	*
16FF/LL	16ryy	8a/ 8f/ 8c/	.	8a/	szmer,	.
(16C/	16ryy	.	.	.	.	.
16D-X/	16ryy	8r	.	8r	.	.
16C/	16ryy	.	.	.	.	.
16BBn/	16ryy	8r	.	8r	.	.
16C/JJ)	16ryy	.	.	.	.	.
16EE/LL	4.EE\	8cc/ 8g/ 8c/	.	8cc\	gwar	.
(16C/	.	.	.	.	.	.
16D-/	.	8r	.	8r	.	.
16C/	.	.	.	.	.	.
16BB/	.	8r	.	8r	.	.
16C/JJ)	.	.	.	.	.	.
*v	*v	*	*	*	*	*
=108	=108	=108	=108	=108	=108
!	!	!LO:DY:rj	!	!	!
4Dn/ 4DDn/	4ff/ 4a/ 4f/	ff	4dd\	huk	.
8r	8r	.	8r	.	.
4r	4r	.	4r	.	.
8r	8r	.	8f/	a	.
=109	=109	=109	=109	=109	=109
4BBn/ 4BBBn/	4dd/ 4a-X/ 4f/	.	8dd\	po-	.
.	.	.	8dd\	-tem	.
8r;	8r;	.	8r;	.	.
4r	4r	.	8r	.	.
.	.	.	8f/	Wszy-	.
!	!	!	!LO:TX:a:t=moderato	!	!
8r	8r	.	8g/	-stko	.
!!LO:LB:g=original
=110	=110	=110	=110	=110	=110
8C/ 8CC/	8an/ 8f/ 8c/	p	(8a/L	koń-	.
8r	8r	.	8f/J)	.	.
8r	8r	.	8d/	-czy	.
4.C\ 4.CC\	4.e/ 4.c/ 4.B-</ 4.G</	.	4c/	się	.
.	.	.	8cc/ 8c/	fa-	.
=111	=111	=111	=111	=111	=111
8F\ 8FF\	8f/ 8c/ 8A</	.	8cc/ 8c/	-go-	.
8r	(8ff/L 8f'/	.	8f/ 8F/	-tem,	.
8r	8ff/J 8f'/	.	8r	.	.
4r	8ff/L 8f'/	.	4r	.	.
.	8ff/ 8f'/	.	.	.	.
8r	8ff/J 8f'/)	.	8f/	Któ-	.
=112	=112	=112	=112	=112	=112
*^	*	*	*	*	*
4.BB-/	8BB-\L	4d'/	.	4d/	-re-	.
.	(>8B-\	.	.	.	.	.
.	8F\J)	8f/	.	8f/	-go	.
4.BB-'/	8BB-\L	8f/L	.	8f/	po-	.
.	(>8B-\	8b-/	.	8b-/	-waż-	.
.	8F\J)	8dd/J	.	8dd\	-ne	.
*v	*v	*	*	*	*	*
=113	=113	=113	=113	=113	=113
8F/ 8FF/	8cc/ 8a/	.	8cc\	to-	.
8r	8ff/L 8f/	.	8f/	-ny	.
8r	8ff/J 8f/	.	8r	.	.
4r	8ff/L 8f/	.	8r	.	.
.	8ff/ 8f/	.	8f/	Wró-	.
8r	8ff/J 8f/	.	8f/	-cą	.
!!LO:LB:g=original
=114	=114	=114	=114	=114	=114
*^	*	*	*	*	*
4.BB-'/	8BB-\L	(4dd/ 4d/	.	4d/	po-	.
.	(>8B-\	.	.	.	.	.
.	8F\J)	8f/)	.	8f/	-kój	.
4.BB-'/	8BB-\L	(4b-\	.	4b-/	za-	.
.	(>8B-\	.	.	.	.	.
.	8F\J)	8dd\)	.	8dd\	-kłó-	.
*v	*v	*	*	*	*	*
=115	=115	=115	=115	=115	=115
8F/ 8FF/	8cc/L 8a/	.	8cc\	-co-	.
8r	8f/	.	8f/	-ny	.
8r	8f/J	.	8r	.	.
4r	8f/L	.	8r	.	.
.	8f/	.	8f/	I	.
8r	8f/J	.	8f/	Har-	.
=116	=116	=116	=116	=116	=116
4E-X/ 4EE-X/	(>4g/ 4e-X/ 4B-X'/	.	4g/	-mo-	.
8E-/ 8EE-/	8g/ 8e-/ 8B-'/	.	8g/	-nia	.
4D/ 4DD/	4a/ 4f#X/ 4d'/	<	4a/	w sa-	.
8D/ 8DD/	8a/ 8f#/ 8d'/	[[	8a/	-mą	.
=117	=117	=117	=117	=117	=117
4G\ 4GG\	4b-/ 4g/ 4d/)	>	8b-/	po-	.
.	.	.	8b-/	-rę	.
8r	8r	]	8r	.	.
8BB-/ 8BBB-/	8g/ 8d/ 8B-/	.	8g/L	cu-	.
8r	8r	.	8.b-/J	.	.
8r	8r	.	.	.	.
.	.	.	16dd\	-dne	.
!!LO:LB:g=original
=118	=118	=118	=118	=118	=118
8C/ 8CC/	8f/ 8c/ 8A/	.	(16cc\LL	swo-	.
.	.	.	32dd\L	.	.
.	.	.	32cc\JJJ	.	.
8r	8r	.	8a/)	.	.
8r	8r	.	8f/	-je	.
8C\ 8CC\	8e/ 8c/ 8B-/ 8G/	.	16d/	to-	.
.	.	.	16c/	-ny	.
8r	8r	.	8.a;/L	łą-	.
8r;	8r;	.	.	.	.
.	.	.	16g/Jk	.	.
=119	=119	=119	=119	=119	=119
8F\ 8FF\	8f/ 8c/ 8A/	.	8f/	-czy	.
8r	(8ff\L 8f'\	>	8r	.	.
8r	8ff\J 8f'\	.	8r	.	.
4r	8ff\L 8f'\	.	8r	.	.
.	8ff\ 8f'\	.	8f/	A	.
8r	8ff\J 8f'\)	]	8f/	dy-	.
=120	=120	=120	=120	=120	=120
!	!	!	!LO:DY:rj	!	!
2.F\ 2.FF\	2.a-X/ 2.f/ 2.d/ 2.Bn^/	fp	4a-X/	-so-	.
.	.	.	8f/	-nans	.
.	.	.	4f/	gdy	.
.	.	.	8f/	się	.
!!LO:PB:g=original
=121	=121	=121	=121	=121	=121
8F\ 8FF\	8an/ 8f/ 8c/	.	8an/	skoń-	.
8r	(8ff\L 8f'\	.	8f/	-czy	.
8r	8ff\J 8f'\	.	8r	.	.
4r	8ff\L 8f'\	.	8r	.	.
.	8ff\ 8f'\	.	8f/	Wszy-	.
8r	8ff\J 8f'\)	.	8f/	-stko	.
=122	=122	=122	=122	=122	=122
2.F\ 2.FF\	2.a-X/ 2.f/ 2.d/ 2.B-/	.	4a-X/	pój-	.
.	.	.	8f/	-dzie	.
.	.	.	4f/	con	.
.	.	.	8f/	a-	.
=123	=123	=123	=123	=123	=123
!	!	!	!LO:TX:a:t=Adagio	!	!
4F\ 4FF\	4an/ 4f/ 4c/	.	8an/	-mo-	.
.	.	.	8f/	-re	.
8r	8r	.	8r	.	.
!	!	!LO:DY:rj	!	!	!
8F\L 8FF\	(8a/L 8f/ 8c/	pp	(16a/LL	Tak	.
.	.	.	32b-/L	.	.
.	.	.	32a/JJJ)	.	.
8C#X\	8g/ 8e/ 8A/	.	8g/	wszy-	.
8D\J	8f/J 8d/ 8A/)	.	8f/	-stko	.
!!LO:LB:g=original
=124	=124	=124	=124	=124	=124
(8BB-/L	(8d/L 8B-/	.	8d/L	pój-	.
8GG/	8b-/ 8d/	.	8b-/J	.	.
8BB-/J	8g/J 8B-/	.	8g/	-dzie	.
4C/)	4f/ 4c/ 4A/	.	4f/	con	.
8C/ 8CC/	8g/ 8e/ 8c/)	.	8g/	a-	.
=125	=125	=125	=125	=125	=125
4F\ 4FF\	(8g#X/L 8f/ 8d/ 8Bn^/	.	8g#X/	-mo-	.
.	8a/J 8f/ 8c/)	.	8a/	-re	.
8r	8r	.	8r	.	.
8A\ 8AA\	8r	.	(16cc\LL	Tak	.
.	.	.	32dd\L	.	.
.	.	.	32cc\JJJ)	.	.
8r	8cc/L 8f/ 8c/	.	8a/	wszy-	.
8r	8cc/J 8f/ 8c/	.	8f/	-stko	.
=126	=126	=126	=126	=126	=126
8B-\ 8BB-\	8r	.	8d/L	pój-	.
8r	8b-/L 8g/ 8d/	.	8b-/J	.	.
8r	8g/J 8d/ 8B-/	.	8g/	-dzie	.
.	.	.	(>8.qqcc/L;<	.	.
.	.	.	32qqbn/LL	.	.
.	.	.	32qqcc/J	.	.
.	.	.	16qqdd/	.	.
.	.	.	16qqcc/	.	.
.	.	.	16qqb-X/	.	.
.	.	.	16qqa/	.	.
.	.	.	16qqg/	.	.
.	.	.	16qqf/	.	.
.	.	.	16qqe/	.	.
!	!LO:TX:a:t=rallen&colon;	!	!	!	!
.	.	.	16qqd/JJ	.	.
8c\ 8A\ 8F\ 8C\	8aa\ 8ff\ 8cc\ 8a\	f	(8.c/L)	con	.
8r;	8r;	.	.	.	.
.	.	.	16a/Jk	.	.
16C\ 16CC\	16e/ 16c/ 16B-/ 16G/	.	16.g/	.	.
16r;	16r;	.	.	.	.
.	.	.	32cc\)	a-	.
!!LO:LB:g=original
=127	=127	=127	=127	=127	=127
!	!	!LO:DY:rj	!	!	!
8c\ 8A\ 8F\	(16ff\LL	f	8cc\	-mo-	.
.	16aa\	.	.	.	.
8r	16gg\	.	8f/	-re.	.
.	16ff\	.	.	.	.
8r	16ee\	.	8r	.	.
.	16dd\JJ	.	.	.	.
*tremolo	*	*	*	*	*
8c\L 8B-\ 8E\ 8C\	8cc\L)	.	4r	.	.
8c\ 8B-\ 8E\ 8C\	8ee'\	.	.	.	.
8c\J 8B-\ 8E\ 8C\	8gg'\J	.	8r	.	.
*Xtremolo	*	*	*	*	*
=128	=128	=128	=128	=128	=128
8c\ 8A\ 8F\	(16ff\LL	.	2.r	.	.
.	16aa\	.	.	.	.
8r	16gg\	.	.	.	.
.	16ff\	.	.	.	.
8r	16ee\	.	.	.	.
.	16dd\JJ	.	.	.	.
*tremolo	*	*	*	*	*
8c\L 8B-\ 8E\ 8C\	8cc\L)	.	.	.	.
8c\ 8B-\ 8E\ 8C\	8ee'\	.	.	.	.
8c\J 8B-\ 8E\ 8C\	8gg'\J	.	.	.	.
*Xtremolo	*	*	*	*	*
=129	=129	=129	=129	=129	=129
16c\ 16A\ 16F\	16ff\LL|	.	2.r	.	.
*clefG2	*	*	*	*	*
(16g#X/LL	(16ee\	.	.	.	.
16a/	16ff\	.	.	.	.
16g#/	16ee\	.	.	.	.
16a/	16ff\	.	.	.	.
16g#/JJ	16ee\JJ	.	.	.	.
16a/LL)	16ff\LL)	.	.	.	.
16g#/|	16bn\|	.	.	.	.
(16a/	(16cc\	.	.	.	.
16g#/	16b\	.	.	.	.
16a/	16cc\	.	.	.	.
16g#/JJ)	16b\JJ)	.	.	.	.
!!LO:LB:g=original
=130	=130	=130	=130	=130	=130
*^	*	*	*	*	*
16a/LL	16ryy	16cc'/LL	.	2.r	.	.
(16e/	16ryy	(16g#X/	.	.	.	.
16f/	16ryy	16a/	.	.	.	.
16e/	16ryy	16g#/	.	.	.	.
16f/	16ryy	16a/	.	.	.	.
16e/JJ	16ryy	16g#/JJ	.	.	.	.
16f/)	16ryy	16a/)	pp	.	.	.
*clefF4	*	*	*	*	*	*
!LO:TX:t=P:problem=mixed beam	!	!	!	!	!	!
16G#X/	16ryy	(16e/LL 16c/	.	.	.	.
16A/LL	4F\	16f/ 16c/	.	.	.	.
16G#/	.	16e/	.	.	.	.
16A/	.	16f/	.	.	.	.
16G#/JJ	.	16e/JJ)	.	.	.	.
=131	=131	=131	=131	=131	=131	=131
*	*	*^	*	*	*	*
*	*	*	*2\right	*	*	*	*
!	!	!	!	!LO:HP:t=dim	!	!	!
16A/LL	2.F\	(16f/LL	2.c\	>	2.r	.	.
(<16G#X/	.	16e/	.	.	.	.	.
16A/	.	16f/	.	.	.	.	.
16G#/	.	16e/	.	.	.	.	.
16A/	.	16f/	.	.	.	.	.
16G#/JJ	.	16e/JJ	.	.	.	.	.
16A/LL	.	16f/LL	.	.	.	.	.
16G#/	.	16e/	.	.	.	.	.
16A/	.	16f/	.	.	.	.	.
16G#/	.	16e/	.	.	.	.	.
16A/	.	16f/	.	.	.	.	.
16G#/JJ)	.	16e/JJ	.	.	.	.	.
*v	*v	*	*	*	*	*	*
*	*v	*v	*	*	*	*
=132	=132	=132	=132	=132	=132
8A\ 8F\	8f/ 8c/)	.	2.r	.	.
8r	8r	.	.	.	.
8r	8r	.	.	.	.
4F/ 4C/ 4FF/	4fff\ 4ccc\ 4aa\ 4ff\	ff	.	.	.
8r	8r	.	.	.	.
==	==	==	==	==	==
*-	*-	*-	*-	*-	*-
!!!system-decoration: s1[(s2,s3)]
!!!RDF**kern: > = above
!!!RDF**kern: < = below
!!!RDF**kern: | = vertical stroke
!!!EED: Leszek Kubiak
!!!EEV: 2021-06-28
!!!ENC: Krzysztof Stępień
!!!END: 2021-06-21
